!!!SOCIAL_FUNCTION:	songs of the moccasin game
!!!PDT:	1918

Specific Region: Dakotas, Minnesota, Montana, Nebraska
!!!REG: Dakotas and Montana
!!!LING_GROUP: Siouan
!!!LANG: Tone
!!!OTL@ENG: Song of the Moccasin Game (c)
!!!ONM: No. 208
**kern
*Imale
*clefF4
*M2/4
*>[A,A]
*>norep[A]
*>A
=1!|:
*MM114
4e
4e
=2
4d
4d
=3
(8e
8c)
4A
=4
4A
4A
=5
4A
4A
=6
16A
[8.A
4A]
=7
4A
4G
=8
4G
4r
=9
4A
4A
=10
4A
4A
=11
16A
8.A
4A
=12
16A
[8.A
4A]
==:|!
*-
!!!CNT: Native American -- Sioux
!!!MRD: 1911/07//-1914///
!!!OCL: Frances Densmore
!!!YOR1: Teton Sioux Music, Bulletin 61,
!!!YOR2: Bureau of American Ethnology, Smithsonian Institution
!!!PPR: Government Printing Office
!!!PPP: Washington, D.C.
!!!PDT: 1918///
!!!ENC: Craig Stuart Sapp
!!!END: 2002/03/25/
!!!EEV: 2002/03/31/
!!!AGN: Game Song
!!!MPN@@SIO: Chetang'-hota
!!!MPN@ENG: Gray Hawk
!!!TXO: Teton Sioux
!!!MLC: Standing Rock Reservation, South Dakota, United States of America
!!!ARL: 45.9/-100.7#
!!!catalog: Catalogue No. 560
!!!PPG: 487
!!!EFL: 213/245
!!!VTS: 2241617024
